!!! OTL: Berkowitz274
!!! Chapter: 1
!!! Section: II
!!! Page: 65
!!! Mode: 
!!! Encoder: DJB
**kern
*staff1
*I"Piano
=1-
*clefG2
*k[f#c#g#]
*A:
*M4/4
8a\L
8cc#\
8dd\
8dd#\J
4ee\
8r
8a/
=2
8g#/L
8b/
8b#/
8cc#/J
4dd\
8r
8b#\
=3
4cc#\
4ee\
4dd\
4a/
=4
4cc#\
4ccn\
4b\
8r
8ee\
=5
8a\L
8cc#\
8dd\
8dd#\J
4ee\
8r
8a/
=6
8fn/L
8a/J
4dd#\
4dd#\
8r
8dd#\
=7
!!linebreak:original
8ee\L
8cc#\
8a\
8f#\J
4e/
4r
=8
8dd/L
8b/
8g#/
8f#/J
4e/
8r
8e/
=9
4fn/
4a/
4cc#\
4dd#\
=10
4ee\
8cc#\L
8b\J
4a/
4r
==
*-
